YouTube Shorts Block Extension/Resources/images/toolbar-icon.svg

<svg viewBox="0 0 15.9375 15.9453" xmlns="http://www.w3.org/2000/svg"><path d="m7.96875 15.9375c4.35935 0 7.96875-3.6172 7.96875-7.96875 0-4.35937-3.6172-7.96875-7.97656-7.96875-4.35156 0-7.96094 3.60938-7.96094 7.96875 0 4.35155 3.61719 7.96875 7.96875 7.96875zm0-1.3281c-3.6875 0-6.63281-2.9532-6.63281-6.64065 0-3.6875 2.9375-6.64063 6.625-6.64063 3.68746 0 6.64846 2.95313 6.64846 6.64063 0 3.68745-2.9532 6.64065-6.64065 6.64065z"/><path d="m4.53906 8.50781c0 .19531.15625.33594.35938.33594h2.64844l-1.41407 3.79685c-.1875.5.34375.7735.67188.3672l4.28121-5.37499c.086-.09375.1329-.20312.1329-.30469 0-.19531-.1563-.33593-.3594-.33593h-2.64846l1.41406-3.79688c.1875-.5-.34375-.77343-.67188-.375l-4.28124 5.375c-.08594.10157-.13282.21094-.13282.3125z"/></svg>

<?xml version="1.0" encoding="UTF-8"?>
<svg version="1.1" xmlns="http://www.w3.org/2000/svg" viewBox="0 0 15.9375 15.9453">
  <path d="M7.96875 15.9375C12.3281 15.9375 15.9375 12.3203 15.9375 7.96875C15.9375 3.60938 12.3203 0 7.96094 0C3.60938 0 0 3.60938 0 7.96875C0 12.3203 3.61719 15.9375 7.96875 15.9375ZM7.96875 14.6094C4.28125 14.6094 1.33594 11.6562 1.33594 7.96875C1.33594 4.28125 4.27344 1.32812 7.96094 1.32812C11.6484 1.32812 14.6094 4.28125 14.6094 7.96875C14.6094 11.6562 11.6562 14.6094 7.96875 14.6094Z" />
  <path d="M4.53906 8.50781C4.53906 8.70312 4.69531 8.84375 4.89844 8.84375L7.54688 8.84375L6.13281 12.6406C5.94531 13.1406 6.47656 13.4141 6.80469 13.0078L11.0859 7.63281C11.1719 7.53906 11.2188 7.42969 11.2188 7.32812C11.2188 7.13281 11.0625 6.99219 10.8594 6.99219L8.21094 6.99219L9.625 3.19531C9.8125 2.69531 9.28125 2.42188 8.95312 2.82031L4.67188 8.19531C4.58594 8.29688 4.53906 8.40625 4.53906 8.50781Z" />
</svg>
